X:2574
T:Polska efter Johan Jacob Bruun
T:arr. Carl-Eric Berndt
R:Polska
M:3/4
L:1/8
K:Dm
V:1
Ad d^c cA | A/=B/^c/d/ e2>c2 | dd/^c/ de fg | aa g/a/b/g/ a2 |
Ad d^c cA | A/=B/^c/d/ e2>c2 | d^c de fe/d/ | ed/^c/ d2 D2 ::
fa fa (b/a/)g/f/ | eg eg (a/g/)f/e/ | fa fa (b/a/)g/f/ | eg eg (a/g/)f/e/ | 
(d/^c/)d/e/ (f/e/)f/g/ (a/b/)a/g/ | (f/e/)d/^c/ e2 d2 :|
V:2
AF FE E^C | ^C/D/E/F/ [G2G,2]>E2 | FF/E/ FA de | f2 e/f/g/e/ [e2^c2] |
D3 AAE | (^C/D/E/F/) [G2G,2]>^c2 | dA FE DE | e/g/f/e/ [f2F2] [A2F2] ::
Ac Ac (d/c/)B/A/ | GB GB (c/B/)A/G/ | (D/A/)(f/A/) (D/A/)(f/A/) (g/f/)e/d/ | (A/^c/)(e/c/) (A/^c/)(e/c/) (A/c/)d/e/ |
[f2A2] (d/^c/)d/e/ (f/g/)f/e/ | (A/G/)F/E/ [A2A2] [F2A2] :|
V:3
D3 A[AE]E | E2 ^C3 E | D2 A2>A2 | AA G/A/B/G/ [A2A2] |
D([AF] [AF])([AF] [AF])[F^C] | E([AG] [AG])([AG] [AG])[AG] | [AF][AE] [A2D2] AD/E/ | ^C2 D4 ::
[F2A,2] [F3A,3] z | [E2A,2] [E3A,3] z | [DD]([DD] [DD])([DD] [DD])[DD] | ^C([AA] [AA])([AA] [AA])[AA] | 
[DD] z z2 (F/G/F/)E/ | D/E/D/^C/ A,C [D2D2] :|
(:musicend:)


(:music:)
